X: 1
T: Kilimarsko (Pajdu\vsko)
P: Order AA BB CC D EE AA BB
M: 5/8
K: G
P: All:
"A"|: cd \
   | "Am"{d}e3 ed | c2B c2 | "G"B2A B2 | B3 cd \
   | "Am"{d}e3 ed | c2B c2 | "G"B2A A2 | "Am"A3 :|
   |: FG \
   | "Am"A2G AB | c2B cd | "(G)"cBA B2 | "G"B3 FG \
   | "Am"A2G AB | c2B cd | "(G)"cBA A2 | "Am"A3 :|
"B"|: G2 \
   | "Am"A3 B2 | "G"B2G AB | "Am"c2E cB | "(G)"A2G B2 | "G"B2A G2 \
   | "Am"A3 B2 | "G"B2G Bd | "Am"c2E cB | "G"A2G "Am"A2 | A3 :|
   |: cd \
   | "D"ddc cd | "G"cBG A2 | GAB c2 | "C"c3 cd \
   | "D"ddc cd | "G"cBG A2 | "Am"{G}A2G A2 | A3 :|
P: Gaida:
K: Amix
"C"|: dG \
   | d2c cG | c2B BG | B2A AE | ABc dG \
   | d2c cG | c2B BG | B2A AE | A2A :|
K: G
   |: =cG \
   | B2A cd | A2A cG | B2A _BG | A2A cG \
   | B2A cd | A2A cG | B2A _BG | A2A :|
P: Gadulka:
K: A
"D"|: GA \
   | B2A dA | cEE GA | B2A =cA | BEE GA \
   | B2A dA | cEE GA | B2A =cA | BEE :|
   |: dA \
   | c2A BA | ABc de | c2A BA | eAA dA \
   | c2A BA | ABc de | c2A BA | AEA :|
   |: ed \
   | c2A BA | ABc de | c2A BA | eAA ed \
   | c2A BA | ABc de | c2A BA | AEA :|
P: Kaval:
K: Amix
"E"|: eA \
   | d2e ce | cBA AB | AGA GA | FEA AB \
   | ede ce | cBA AB | G2A F2- | F3 :|
   |: AB \
   | GAA AB | E2A AB | G2A FA | FEA AB \
   | GAA AB | E2A AB | G2A F2- | F3 :|
